aloe_vera/img/advantages_2.svg

<svg width="65" height="65" viewBox="0 0 65 65" fill="none" xmlns="http://www.w3.org/2000/svg">
<path d="M26.4062 43.6719C26.4062 42.8638 26.7273 42.0888 27.2987 41.5174C27.8701 40.946 28.645 40.625 29.4531 40.625H38.5938V22.3438L32.5 15.2344V10.1562H8.125V15.2344L2.03125 22.3438V48.75C2.03125 49.8274 2.45926 50.8608 3.22113 51.6226C3.983 52.3845 5.01631 52.8125 6.09375 52.8125H26.4062V43.6719Z" fill="#E2E7F6"/>
<path d="M2.03125 22.3438H38.5938V46.7188H2.03125V22.3438Z" fill="#3279EA"/>
<path d="M6.09375 2.03125H34.5312V10.1562H6.09375V2.03125Z" fill="#3279EA"/>
<path d="M26.4062 32.5H22.3438V28.4375H18.2812V32.5H14.2188V36.5625H18.2812V40.625H22.3438V36.5625H26.4062V32.5Z" fill="#7AADF9"/>
<path d="M8.125 10.1562H32.5V15.2344H8.125V10.1562Z" fill="#C8CDED"/>
<path d="M59.9219 40.625H29.4531C27.7704 40.625 26.4062 41.9891 26.4062 43.6719V59.9219C26.4062 61.6046 27.7704 62.9688 29.4531 62.9688H59.9219C61.6046 62.9688 62.9688 61.6046 62.9688 59.9219V43.6719C62.9688 41.9891 61.6046 40.625 59.9219 40.625Z" fill="#C8CDED"/>
<path d="M32.5 48.75C33.6218 48.75 34.5312 47.8406 34.5312 46.7188C34.5312 45.5969 33.6218 44.6875 32.5 44.6875C31.3782 44.6875 30.4688 45.5969 30.4688 46.7188C30.4688 47.8406 31.3782 48.75 32.5 48.75Z" fill="white"/>
<path d="M40.625 48.75C41.7468 48.75 42.6562 47.8406 42.6562 46.7188C42.6562 45.5969 41.7468 44.6875 40.625 44.6875C39.5032 44.6875 38.5938 45.5969 38.5938 46.7188C38.5938 47.8406 39.5032 48.75 40.625 48.75Z" fill="white"/>
<path d="M48.75 48.75C49.8718 48.75 50.7812 47.8406 50.7812 46.7188C50.7812 45.5969 49.8718 44.6875 48.75 44.6875C47.6282 44.6875 46.7188 45.5969 46.7188 46.7188C46.7188 47.8406 47.6282 48.75 48.75 48.75Z" fill="white"/>
<path d="M56.875 48.75C57.9968 48.75 58.9062 47.8406 58.9062 46.7188C58.9062 45.5969 57.9968 44.6875 56.875 44.6875C55.7532 44.6875 54.8438 45.5969 54.8438 46.7188C54.8438 47.8406 55.7532 48.75 56.875 48.75Z" fill="white"/>
<path d="M32.5 58.9062C33.6218 58.9062 34.5312 57.9968 34.5312 56.875C34.5312 55.7532 33.6218 54.8438 32.5 54.8438C31.3782 54.8438 30.4688 55.7532 30.4688 56.875C30.4688 57.9968 31.3782 58.9062 32.5 58.9062Z" fill="white"/>
<path d="M40.625 58.9062C41.7468 58.9062 42.6562 57.9968 42.6562 56.875C42.6562 55.7532 41.7468 54.8438 40.625 54.8438C39.5032 54.8438 38.5938 55.7532 38.5938 56.875C38.5938 57.9968 39.5032 58.9062 40.625 58.9062Z" fill="white"/>
<path d="M48.75 58.9062C49.8718 58.9062 50.7812 57.9968 50.7812 56.875C50.7812 55.7532 49.8718 54.8438 48.75 54.8438C47.6282 54.8438 46.7188 55.7532 46.7188 56.875C46.7188 57.9968 47.6282 58.9062 48.75 58.9062Z" fill="white"/>
<path d="M56.875 58.9062C57.9968 58.9062 58.9062 57.9968 58.9062 56.875C58.9062 55.7532 57.9968 54.8438 56.875 54.8438C55.7532 54.8438 54.8438 55.7532 54.8438 56.875C54.8438 57.9968 55.7532 58.9062 56.875 58.9062Z" fill="white"/>
<path d="M49.4711 31.7789L54.1227 27.1273C54.3503 26.8986 54.6209 26.7171 54.919 26.5934C55.2171 26.4696 55.5366 26.406 55.8594 26.4063C56.1821 26.406 56.5017 26.4696 56.7997 26.5934C57.0978 26.7171 57.3684 26.8986 57.5961 27.1273L58.1852 27.7164C58.4139 27.9441 58.5954 28.2147 58.7191 28.5128C58.8429 28.8108 58.9065 29.1304 58.9063 29.4531C58.9065 29.7759 58.8429 30.0954 58.7191 30.3935C58.5954 30.6916 58.4139 30.9622 58.1852 31.1898L53.5336 35.8414C53.3059 36.0702 53.0353 36.2516 52.7372 36.3754C52.4392 36.4991 52.1196 36.5627 51.7969 36.5625C51.4741 36.5627 51.1546 36.4991 50.8565 36.3754C50.5584 36.2516 50.2878 36.0702 50.0602 35.8414L49.4711 35.2523C49.2423 35.0247 49.0609 34.7541 48.9371 34.456C48.8134 34.1579 48.7498 33.8384 48.75 33.5156C48.7498 33.1929 48.8134 32.8733 48.9371 32.5753C49.0609 32.2772 49.2423 32.0066 49.4711 31.7789Z" fill="#E1656E"/>
<path d="M51.7969 29.4531L49.4711 31.7789C49.242 32.0064 49.0602 32.277 48.9361 32.575C48.8121 32.8731 48.7482 33.1928 48.7482 33.5156C48.7482 33.8385 48.8121 34.1581 48.9361 34.4562C49.0602 34.7543 49.242 35.0248 49.4711 35.2523L50.0602 35.8414C50.2877 36.0705 50.5582 36.2523 50.8563 36.3764C51.1544 36.5004 51.474 36.5643 51.7969 36.5643C52.1197 36.5643 52.4394 36.5004 52.7374 36.3764C53.0355 36.2523 53.3061 36.0705 53.5336 35.8414L55.8594 33.5156L51.7969 29.4531Z" fill="#E2E7F6"/>
<path d="M53.107 15.5289L48.4555 10.8773C48.2278 10.6486 47.9572 10.4671 47.6591 10.3434C47.3611 10.2196 47.0415 10.156 46.7188 10.1563C46.396 10.156 46.0764 10.2196 45.7784 10.3434C45.4803 10.4671 45.2097 10.6486 44.982 10.8773L44.393 11.4664C44.1642 11.6941 43.9827 11.9647 43.859 12.2628C43.7352 12.5608 43.6716 12.8804 43.6719 13.2031C43.6716 13.5259 43.7352 13.8454 43.859 14.1435C43.9827 14.4416 44.1642 14.7122 44.393 14.9398L49.0445 19.5914C49.2722 19.8202 49.5428 20.0016 49.8409 20.1254C50.1389 20.2491 50.4585 20.3127 50.7813 20.3125C51.104 20.3127 51.4236 20.2491 51.7216 20.1254C52.0197 20.0016 52.2903 19.8202 52.518 19.5914L53.107 19.0023C53.3358 18.7747 53.5173 18.5041 53.641 18.206C53.7648 17.9079 53.8284 17.5884 53.8281 17.2656C53.8284 16.9429 53.7648 16.6233 53.641 16.3253C53.5173 16.0272 53.3358 15.7566 53.107 15.5289Z" fill="#3279EA"/>
<path d="M50.7812 13.2031L53.107 15.5289C53.3361 15.7564 53.5179 16.027 53.642 16.325C53.766 16.6231 53.8299 16.9428 53.8299 17.2656C53.8299 17.5885 53.766 17.9081 53.642 18.2062C53.5179 18.5043 53.3361 18.7748 53.107 19.0023L52.518 19.5914C52.2905 19.8205 52.0199 20.0023 51.7218 20.1264C51.4238 20.2504 51.1041 20.3143 50.7812 20.3143C50.4584 20.3143 50.1387 20.2504 49.8407 20.1264C49.5426 20.0023 49.272 19.8205 49.0445 19.5914L46.7188 17.2656L50.7812 13.2031Z" fill="#E2E7F6"/>
</svg>

<svg width="65" height="65" fill="none" xmlns="http://www.w3.org/2000/svg"><path d="M26.406 43.672a3.047 3.047 0 013.047-3.047h9.14V22.344l-6.093-7.11v-5.078H8.125v5.078l-6.094 7.11V48.75a4.062 4.062 0 004.063 4.063h20.312v-9.141z" fill="#E2E7F6"/><path d="M2.031 22.344h36.563v24.375H2.03V22.344zM6.094 2.031H34.53v8.125H6.094V2.031z" fill="#3279EA"/><path d="M26.406 32.5h-4.062v-4.063H18.28V32.5h-4.06v4.063h4.062v4.062h4.063v-4.063h4.062V32.5z" fill="#7AADF9"/><path d="M8.125 10.156H32.5v5.078H8.125v-5.078zm51.797 30.469H29.453a3.047 3.047 0 00-3.047 3.047v16.25a3.047 3.047 0 003.047 3.047h30.469a3.047 3.047 0 003.047-3.047v-16.25a3.047 3.047 0 00-3.047-3.047z" fill="#C8CDED"/><path d="M32.5 48.75a2.031 2.031 0 100-4.062 2.031 2.031 0 000 4.062zm8.125 0a2.031 2.031 0 100-4.062 2.031 2.031 0 000 4.062zm8.125 0a2.031 2.031 0 100-4.062 2.031 2.031 0 000 4.062zm8.125 0a2.031 2.031 0 100-4.062 2.031 2.031 0 000 4.062zM32.5 58.906a2.031 2.031 0 100-4.062 2.031 2.031 0 000 4.062zm8.125 0a2.031 2.031 0 100-4.062 2.031 2.031 0 000 4.062zm8.125 0a2.031 2.031 0 100-4.062 2.031 2.031 0 000 4.062zm8.125 0a2.031 2.031 0 100-4.062 2.031 2.031 0 000 4.062z" fill="#fff"/><path d="M49.471 31.779l4.652-4.652a2.446 2.446 0 012.677-.534c.298.124.568.306.796.534l.59.59a2.448 2.448 0 01.533 2.677 2.446 2.446 0 01-.534.796l-4.651 4.651a2.448 2.448 0 01-3.474 0l-.589-.589a2.447 2.447 0 01-.534-2.677 2.45 2.45 0 01.534-.796z" fill="#E1656E"/><path d="M51.797 29.453L49.47 31.78a2.448 2.448 0 000 3.473l.59.59a2.447 2.447 0 003.473 0l2.325-2.326-4.062-4.063z" fill="#E2E7F6"/><path d="M53.107 15.529l-4.651-4.652a2.448 2.448 0 00-2.678-.534 2.448 2.448 0 00-.796.534l-.589.59a2.446 2.446 0 00-.534 2.676c.124.299.305.57.534.797l4.651 4.651a2.448 2.448 0 003.474 0l.589-.589a2.445 2.445 0 00.534-2.677 2.446 2.446 0 00-.534-.796z" fill="#3279EA"/><path d="M50.781 13.203l2.326 2.326a2.448 2.448 0 010 3.473l-.589.59a2.448 2.448 0 01-3.474 0l-2.325-2.326 4.062-4.063z" fill="#E2E7F6"/></svg>
